X: 27
T: MEDLEY: Galtee Hunt Set
T: Súisin Bán [Set Dance] / Casadh an tSúgáin
C: C: Trad.; S: Jack Talty & Cormac Begley; Various
C: Set Leaders: Tania, Anton
Z: Anton Zille ed., Oleg Naumov arr.; Tommy McCarty / gian marco at The Session
N: https://thesession.org/members/26966/sets/92417
R: Set Dance
M: 4/4
L: 1/8
Q: 1/2=82
K: Gmaj
|:(3GAB|"C"cEED E2 GE|"G"DE (3GAB "C"c3A|"G"BAGE "(D)"D2 EG|
"Am"A2 AB "D"(3ABA GA|"G"BAGE "(D)"DB,DE|1 "C"G2 "D"GF "G"G2:|2 "C"G2 "D"GF "G"GABd||
|:"C"e2 ed efge|"G"dB (3GAB "C"c3A|"G"BAGE "(D)"D2 EG|
"Am"A2 AB "D"ADGA|"G"BAGE "(D)"DB,DE|1 "C"G2 "D"GF "G"GABd:|2 "C"G2 "D"GF "G"G2||
T: Galtee Hunt [Hornpipe]
R: Hornpipe
K: Gmaj
D2|:"G"GABG AGED|"C"c2 cA "C"BG"D"ED|"G"G2 BG AGED|"C"EAAG "C"AB "D"(3cBA|
"G"GABG "D"AGED|"C"cBcd "C"ef "D"(3gfe|"G"dB (3GAB "Em"AGED|"C"EG"D"GF "G"G3D:||
|:"G"GABc d2 Bd|"C"(3efg "D"fd "Em"e2 d2|"C"e2 d2 g2 d2|"D"edBc dB (3GAB|
"C"c2 cB ce g2|"G"B2 BA BcdB|"D"(3ABA AB "C"AGED|"Em"gfgb "Em"(3agf "D"ge|
"G"dB (3GAB "Em"AGED|"C"cBcd "C"ef "D"(3gfe|"G"dB (3GAB "Em"AGED|1 "C"EG"D"GF "G"G3D:|2 "C"EG"D"GF "G"G2||

